X:1
T:Title
%%score { ( 1 3 ) | ( 2 4 ) }
L:1/8
M:4/4
K:C
V:1 treble nm="Grand Piano"
V:3 treble 
V:2 bass 
V:4 bass 
V:1
 z4 z2[Q:1/4=104] [EG]>[EG] | [Ec]>[Fd] [Ge]>[Fd] [Ec]2 [EG]>[EG] | [FA]2 [FA]2 [EG]2 [EG]>[EG] | %3
 [EA]2 [CEA]2 [B,DG]2 [CD^F]2 | [B,DG]6 [DGB]>[DGB] | [CGc]>[Gd] [Ge]>[Fd] [Ec]2 [EG]>[EG] | %6
 [FA]2 [FA]2 [EG]2 [EG]>[EG] | A>A d>d c2 [FB]2 |[M:3/4] [Ec]6 |[M:1/4] G>G |[M:4/4] c6 z2 | %11
 c6 z2 | z4 z2 c2 | d6 G>G | c6 z2 | c6 z2 | d2 dd c2 [FB]2 |[M:3/4] [Ec]6 |] %18
V:2
 z4 z2 [C,C]>[C,C] | [C,G,]>[C,G,] [C,C]>[C,G,] [C,G,]2 [C,C]>[C,C] | %2
 [F,C]2 [F,C]2 [C,C]2 [C,C]>[C,C] | [C,C]2 A,,2 D,2 D,2 | G,6 G,>F, | %5
 E,>[D,C] [C,C]>[D,C] [E,C]2 [C,C]>[C,C] | [F,C]2 [F,C]2 [C,C]2 [C,C]>[C,C] | %7
 [F,CF]>[F,CF] [F,A,F]>[F,A,F] [G,E]2 [G,,G,]2 |[M:3/4] [C,G,]4 z2 |[M:1/4] E>E |[M:4/4] E6 z2 | %11
 [C,G,]2 [F,A,]>[F,A,] [C,G,]2 [C,C]>[C,C] | [A,CE]2 [A,CE]2 [A,CE]2 .[A,CE]2 | [G,B,G]6 F>F | %14
 E6[K:bass] z2 | [C,G,]2 [F,A,]>[F,A,] [C,G,]2 [E,C]>[K:treble][CG] | %16
 [F,A,F]2[K:bass] [F,A,F][F,A,F] [G,E]2 [G,,G,]2 |[M:3/4] [C,G,]6 |] %18
V:3
 x8 | x8 | x8 | x8 | x8 | x8 | x8 | x8 |[M:3/4] x6 |[M:1/4] x2 | %10
[M:4/4] z2 G,>G, G,>[Fd] [Ge]>[Fd] | E2 F>F E2 [EG]>[EG] | c2 c2 c2 z ^F | x8 | %14
 z2 G,>G, G,>[Fd] [Ge]>[Fd] | E2 F>F E2 [Gc]>c | x8 |[M:3/4] x6 |] %18
V:4
 x8 | x8 | x8 | x8 | x8 | x8 | x8 | x8 |[M:3/4] x6 |[M:1/4] x2 | %10
[M:4/4] z2 C,>C, C,>[C,G,] [C,C]>[C,C] | x8 | x8 | x8 | z2[K:bass] C,>C, C,>[C,G,] [C,C]>[C,C] | %15
 x15/2[K:treble] x/ | x2[K:bass] x6 |[M:3/4] x6 |] %18

